material/.icons/material/briefcase-search-outline.svg

<svg xmlns="http://www.w3.org/2000/svg" viewBox="0 0 24 24"><path d="M10 2h4a2 2 0 012 2v2h4a2 2 0 012 2v5.03c-.5-.8-1.2-1.49-2-2.03V8H4v11h6.5c.31.75.76 1.42 1.31 2H4a2 2 0 01-2-2V8c0-1.11.89-2 2-2h4V4c0-1.11.89-2 2-2m4 4V4h-4v2h4m6.31 12.9l3.08 3.1L22 23.39l-3.12-3.07c-.69.43-1.51.68-2.38.68-2.5 0-4.5-2-4.5-4.5s2-4.5 4.5-4.5 4.5 2 4.5 4.5c0 .88-.25 1.71-.69 2.4m-3.81.1a2.5 2.5 0 002.5-2.5 2.5 2.5 0 00-2.5-2.5 2.5 2.5 0 00-2.5 2.5 2.5 2.5 0 002.5 2.5z"/></svg>

<?xml version="1.0" encoding="UTF-8"?><!DOCTYPE svg PUBLIC "-//W3C//DTD SVG 1.1//EN" "http://www.w3.org/Graphics/SVG/1.1/DTD/svg11.dtd"><svg xmlns="http://www.w3.org/2000/svg" xmlns:xlink="http://www.w3.org/1999/xlink" version="1.1" id="mdi-briefcase-search-outline" width="24" height="24" viewBox="0 0 24 24"><path d="M10,2H14A2,2 0 0,1 16,4V6H20A2,2 0 0,1 22,8V13.03C21.5,12.23 20.8,11.54 20,11V8H4V19H10.5C10.81,19.75 11.26,20.42 11.81,21H4C2.89,21 2,20.1 2,19V8C2,6.89 2.89,6 4,6H8V4C8,2.89 8.89,2 10,2M14,6V4H10V6H14M20.31,18.9L23.39,22L22,23.39L18.88,20.32C18.19,20.75 17.37,21 16.5,21C14,21 12,19 12,16.5C12,14 14,12 16.5,12C19,12 21,14 21,16.5C21,17.38 20.75,18.21 20.31,18.9M16.5,19A2.5,2.5 0 0,0 19,16.5A2.5,2.5 0 0,0 16.5,14A2.5,2.5 0 0,0 14,16.5A2.5,2.5 0 0,0 16.5,19Z" /></svg>
